X:188
T:Collier's Jig, The
T:Do You Want Any More
R:jig
H:See also The Collier's Reel, reel#346
D:De Dannan
Z:id:hn-jig-188
M:6/8
K:Dmix
FDF A2B|cAd cAG|Ad^c d2e|fed ^cAG|
FDF A2B|=cAd cAG|Adc AGE|1 FDD D2E:|2 FDD D2g||
fdg fd^c|Add ^cde|~f3 ed^c|AB^c dfg|
afa ~g3|fgf ed^c|Ad=c AGE|1 FDD D2g:|2 FDD D2E||
